X:630
T:Blue Water Quadrille
O:england
C:from Larry Older
N:Larry was a fiddler and singer from Middle Grove,
N:a village not many miles west of Saratoga Springs, NY.
M:6/8
Q:350
K:G
GFE|:D2B, B,2D|E2C C2B|c2B A2G|F2E D2E |D2B, B,2D|E2C C2E|\
FED A2F|1G3 GFE:|2G3 d3||g3 gfg|e2c cBc|A2a A2a|f2d d^cd|\
B2g B2g|e2c c2^g|a2^g a2^c |d3 d2=c|Bcd g2d|e2c cBc|\
A^ce a2g|f2d d ga|b2g d2B|e2c A2G|FGA DEF| G3||


